X: 1
T: The Strayaway Child
R: jig
M: 6/8
L: 1/8
K: Emin
A|:BEE GEE|B,EE G2 A|BEE A2 G|FDF Adc|
|BEE GEE B,EE G2 A|BcB B2 A|GEE E2 A:|
|:Bee BdB|dBG AGA|Bee BdB|
[1 dBG A2 A|Bee BdB|dBG AGA|BcB B2 A|GEE E2 A:|
[2 dBG A2 f|gfe dcB|AGA BGE|AGE DB,D|~E3 E2 D||
|:EAG EDE|~G3 BAG|AGE DB,D|EFE E2 D|EAG EDE|
~G3 BAG|AGE DB,D|1 ~E3 E2 D:|2 EFE E2 B||
|:efe ded|cBA BGE|GAB dBB|AGE D2 c|BAG EDE|
|GAB cBA|BAG EAG|1 ~E3 E2 B:|2 ~E3 E2 A||
|:Bee efg|fdf edA|Bee efg|fdf e2 f|gfe dcB|
|AGA BGE|AGE DB,D|1 ~E3 E2 A:|2 ~E3 E2 B||
|:edB edB|AGA BGE|edB edB|AGA ~B3|edB gfe|
|dcB AGA|BAG EAG|1 ~E3 E2 B:|2 ~E3 E3||


Tune 134	Setting 25594

